client/resources/iconsets/breeze/src/svg/16x16/icon_contact_card_view.svg

<svg xmlns="http://www.w3.org/2000/svg" width="16" height="16" viewBox="0 0 16 16">
 <path style="fill:#6d6d70"
       d="M 2 3 C 1.446 3 1 3.446 1 4 L 1 13 C 1 13.554 1.446 14 2 14 L 14 14 C 14.554 14 15 13.554 15 13 L 15 4 C 15 3.446 14.554 3 14 3 L 2 3 z M 6 4 A 2 2 0 0 1 8 6 A 2 2 0 0 1 6 8 C 8.209139 8 10 9.790861 10 12 C 10 12.552285 8.209139 13 6 13 C 3.790861 13 2 12.552285 2 12 C 2 9.790861 3.790861 8 6 8 A 2 2 0 0 1 4 6 A 2 2 0 0 1 6 4 z "
       />
</svg>

<svg xmlns="http://www.w3.org/2000/svg" width="16" height="16"><path d="M2 3a1 1 0 0 0-1 1v9a1 1 0 0 0 1 1h12a1 1 0 0 0 1-1V4a1 1 0 0 0-1-1H2zm4 1a2 2 0 1 1 0 4 4 4 0 0 1 4 4c0 .552-1.791 1-4 1s-4-.448-4-1a4 4 0 0 1 4-4 2 2 0 1 1 0-4z" fill="#6d6d70"/></svg>
